X: 143
T: 3. Le Carillon - dun Ker que
T: le Carillon du Dunkerque
B: Robert Landrin "Potpourri fran\,cois des contre-danse ancienne tel quil se danse chez la Reine ..." 1760 p.14 #3
S: http://memory.loc.gov/cgi-bin/query/D?musdibib:2:./temp/~ammem_EbRS:
Z: 2014 John Chambers <jc:trillian.mit.edu>
M: 2/4
L: 1/8
K: G
% - - - - - - - - - - - - - - - - - - - - - - - - -
G |\
BGBG | ADDA | cAcA | BGGd |\
edef | gf/e/ dc | B2!+!A2 | G3 :|
d |\
g>"2.f."agf | !+!e3e | a>bag | !+!f3a |\
gfed | ^cAde | f2!+!e2 | d3d |
g>agf | !+!e3d | cBAG | !+!A3G |\
BGBG | ADAD | cAcA | BGGd |
edef | gf/e/ dc | B2!+!A2 | G3 |]
% - - - - - - - - - - - - - - - - - - - - - - - - -

%%sep 1 1 500
%%sep 1 1 500
